X: 19
T: Chorus Jig
R:Reel
S:MacDonald - Skye Collection
N:pg.58
M:C
L:1/8
K:D Mix
A|(GF)DD FADD|(GF)DD FABA|(GF)DD FADD|FD=cc EG E:|
F(Dd)d BAGF|E(Dd)d BA A2|(Dd)dB AGFD|E=cc[EB] G2 E2|
(Dd)dB AGFE|DddB A2A2|BcdB cABG|AFE=c cEGE||g|(fd)df af d2|
(gf)dd faba|(gf)dd fafd|fede fg e:|
|:g|fdec dBAF|DddB A2A2|gfde cdBG|FE=cc [EB]GE:|


